!!!OTL: "Der gespenstische Reiter" ES STEHN DIE STERN AM HIMMEL
!!!ARE: Europa, Mitteleuropa, Deutschland
!!!SCT: Z1027
!!!YEM: Copyright 1995, estate of Helmut Schaffrath.
**kern
*ICvox
*Ivox
*M6/8
*k[b-e-a-d-]
*f:
{8c
=1
8.f
16g
8a-
8a-
8g
8f
=2
4g
8e
4c}
{8a-
=3
8g
8e-
8c
4f
8d
=4
4.c}
{4.f
=5
8f
8g
8a-
8cc
8b-
8cc
=6
4.g}
{4.a-
=7
8f
8g
8a-
8g
8f
8e
=8
4f
4.r}
==
!!!AGN: Romanze, Ballade, Tod, Lenora - Sage
!!!ONB: ESAC (Essen Associative Code) Database: ZUCCAL
!!!AMT: compound duple
!!!AIN: vox
!!!EED: Helmut Schaffrath
!!!EEV: 1.0
*-
